static/img/mobile/button-pill-secondary-outline.svg

<svg fill="none" height="48" viewBox="0 0 129 48" width="129" xmlns="http://www.w3.org/2000/svg" xmlns:xlink="http://www.w3.org/1999/xlink"><clipPath id="a"><path d="m16 12h97v24h-97z"/></clipPath><g clip-path="url(#a)" fill="#0063a3"><path d="m36.45 18.28-.44-.44.35-.35c.33-.33.33-.88 0-1.21l-.79-.79c-.33-.33-.88-.33-1.21 0l-.35.35-.44-.44c-.24-.24-.63-.24-.87 0l-1.23 1.23-1.43-1.44c-.39-.39-1.02-.39-1.41 0l-4.61 4.61c-.29.29-.29.77 0 1.06s.77.29 1.06 0l4.26-4.26 1.08 1.08-8.98 8.97 3.75 3.75 11.26-11.26c.24-.24.24-.63 0-.87zm-17.48 11.05v3.04c0 .28.22.5.5.5h3.04c.13 0 .26-.05.35-.15l1.26-1.26-3.75-3.75-1.26 1.26c-.09.09-.15.22-.15.35z"/><path d="m52.8984 18.5781c.9844 0 1.7969.1198 2.4375.3594.6459.2396 1.125.6042 1.4375 1.0937.3177.4896.4766 1.112.4766 1.8672 0 .5625-.1042 1.0417-.3125 1.4375-.2083.3959-.4818.724-.8203.9844-.3386.2604-.7005.4688-1.086.625l3.2422 5.0547h-2.1172l-2.7578-4.5781h-1.8359v4.5781h-1.875v-11.4219zm-.125 1.5625h-1.2109v3.7344h1.2969c.8698 0 1.5-.1615 1.8906-.4844.3958-.3229.5938-.7995.5938-1.4297 0-.6614-.211-1.1302-.6329-1.4062-.4166-.2761-1.0625-.4141-1.9375-.4141zm10.6407 1.0469c.7708 0 1.4323.1589 1.9843.4766.5521.3177.9766.7682 1.2735 1.3515.2969.5834.4453 1.2813.4453 2.0938v.9844h-5.7734c.0208.8385.2447 1.4843.6718 1.9374.4323.4532 1.0365.6797 1.8125.6797.5521 0 1.0469-.052 1.4844-.1562.4427-.1094.8984-.2682 1.3672-.4766v1.4922c-.4323.2031-.8724.3516-1.3203.4453-.4479.0938-.9844.1406-1.6094.1406-.849 0-1.5964-.164-2.2422-.4921-.6406-.3334-1.1432-.8282-1.5078-1.4844-.3594-.6563-.5391-1.4714-.5391-2.4453 0-.9688.1641-1.7917.4922-2.4688s.7891-1.1927 1.3828-1.5468c.5938-.3542 1.2865-.5313 2.0782-.5313zm0 1.3828c-.5782 0-1.0469.1875-1.4063.5625-.3542.375-.5625.9245-.625 1.6484h3.9375c-.0052-.4322-.0781-.8151-.2187-1.1484-.1355-.3333-.3438-.5937-.625-.7812-.2761-.1875-.6302-.2813-1.0625-.2813zm10.5312-1.3828c.974 0 1.7318.2526 2.2735.7578.5468.5.8203 1.3047.8203 2.4141v5.6406h-1.836v-5.2969c0-.6719-.138-1.1745-.414-1.5078-.2761-.3385-.7032-.5078-1.2813-.5078-.8385 0-1.4219.2578-1.75.7734-.3229.5157-.4844 1.2631-.4844 2.2422v4.2969h-1.8359v-8.6484h1.4297l.2578 1.1718h.1016c.1875-.302.4192-.5494.6953-.7422.2812-.1979.5937-.3463.9375-.4453.3489-.0989.7109-.1484 1.0859-.1484zm9.3047 0c1.0938 0 1.9193.2422 2.4766.7266.5625.4843.8437 1.2395.8437 2.2656v5.8203h-1.3047l-.3515-1.2266h-.0625c-.2448.3125-.4974.5704-.7578.7735-.2605.2031-.5626.3541-.9063.4531-.3385.1042-.7526.1562-1.2422.1562-.5156 0-.9765-.0937-1.3828-.2812-.4063-.1927-.7266-.4844-.9609-.875-.2344-.3906-.3516-.8854-.3516-1.4844 0-.8906.3307-1.5599.9922-2.0078.6667-.4479 1.6719-.6953 3.0156-.7422l1.5-.0547v-.4531c0-.5989-.1406-1.026-.4219-1.2812-.276-.2552-.6666-.3828-1.1718-.3828-.4323 0-.8516.0624-1.2579.1874-.4062.125-.802.2787-1.1874.461l-.5938-1.2969c.4219-.2239.901-.4062 1.4375-.5469.5417-.1406 1.1042-.2109 1.6875-.2109zm1.5 4.6797-1.1172.039c-.9167.0313-1.5599.1876-1.9297.4688s-.5547.6667-.5547 1.1562c0 .4271.1276.7396.3828.9376.2553.1927.5912.289 1.0079.289.6354 0 1.1614-.1797 1.5781-.539.4219-.3646.6328-.8985.6328-1.6016zm14.4141-4.6797c.9689 0 1.6979.25 2.1879.75.494.5.742 1.3021.742 2.4063v5.6562h-1.836v-5.3281c0-.6563-.128-1.1511-.383-1.4844-.2552-.3333-.6432-.5-1.1641-.5-.7291 0-1.2552.2344-1.5781.7031-.3177.4636-.4766 1.138-.4766 2.0235v4.5859h-1.8359v-5.3281c0-.4375-.0573-.8021-.1719-1.0938-.1093-.2969-.2786-.5182-.5078-.664-.2291-.1511-.5182-.2266-.8672-.2266-.5052 0-.9088.1146-1.2109.3437-.2969.2292-.5104.5678-.6406 1.0157-.1302.4427-.1953.987-.1953 1.6328v4.3203h-1.836v-8.6484h1.4297l.2578 1.164h.1016c.1771-.3021.3958-.5495.6562-.7422.2657-.1979.5599-.3437.8829-.4375.3229-.0989.6588-.1484 1.0078-.1484.6458 0 1.1901.1146 1.6328.3437.4427.224.7734.5678.9922 1.0313h.1406c.2708-.4687.6484-.8151 1.1328-1.0391.4844-.2239.9974-.3359 1.5391-.3359zm9.1879 0c.77 0 1.432.1589 1.984.4766s.976.7682 1.273 1.3515c.297.5834.446 1.2813.446 2.0938v.9844h-5.774c.021.8385.245 1.4843.672 1.9374.432.4532 1.037.6797 1.813.6797.552 0 1.046-.052 1.484-.1562.443-.1094.898-.2682 1.367-.4766v1.4922c-.432.2031-.872.3516-1.32.4453-.448.0938-.985.1406-1.609.1406-.849 0-1.597-.164-2.243-.4921-.64-.3334-1.143-.8282-1.507-1.4844-.36-.6563-.54-1.4714-.54-2.4453 0-.9688.164-1.7917.493-2.4688.328-.6771.789-1.1927 1.382-1.5468.594-.3542 1.287-.5313 2.079-.5313zm0 1.3828c-.579 0-1.047.1875-1.407.5625-.354.375-.562.9245-.625 1.6484h3.938c-.005-.4322-.078-.8151-.219-1.1484-.135-.3333-.344-.5937-.625-.7812-.276-.1875-.63-.2813-1.062-.2813z"/></g><rect height="46" rx="23" stroke="#0063a3" stroke-width="2" width="127" x="1" y="1"/></svg>

<svg width="129" height="48" viewBox="0 0 129 48" fill="none" xmlns="http://www.w3.org/2000/svg">
<g clip-path="url(#clip0_647_123088)">
<path d="M36.45 18.28L36.01 17.84L36.36 17.49C36.69 17.16 36.69 16.61 36.36 16.28L35.57 15.49C35.24 15.16 34.69 15.16 34.36 15.49L34.01 15.84L33.57 15.4C33.33 15.16 32.94 15.16 32.7 15.4L31.47 16.63L30.04 15.19C29.65 14.8 29.02 14.8 28.63 15.19L24.02 19.8C23.73 20.09 23.73 20.57 24.02 20.86C24.31 21.15 24.79 21.15 25.08 20.86L29.34 16.6L30.42 17.68L21.44 26.65L25.19 30.4L36.45 19.14C36.69 18.9 36.69 18.51 36.45 18.27V18.28ZM18.97 29.33V32.37C18.97 32.65 19.19 32.87 19.47 32.87H22.51C22.64 32.87 22.77 32.82 22.86 32.72L24.12 31.46L20.37 27.71L19.11 28.97C19.02 29.06 18.96 29.19 18.96 29.32L18.97 29.33Z" fill="#0063A3"/>
<path d="M52.8984 18.5781C53.8828 18.5781 54.6953 18.6979 55.3359 18.9375C55.9818 19.1771 56.4609 19.5417 56.7734 20.0312C57.0911 20.5208 57.25 21.1432 57.25 21.8984C57.25 22.4609 57.1458 22.9401 56.9375 23.3359C56.7292 23.7318 56.4557 24.0599 56.1172 24.3203C55.7786 24.5807 55.4167 24.7891 55.0312 24.9453L58.2734 30H56.1562L53.3984 25.4219H51.5625V30H49.6875V18.5781H52.8984ZM52.7734 20.1406H51.5625V23.875H52.8594C53.7292 23.875 54.3594 23.7135 54.75 23.3906C55.1458 23.0677 55.3438 22.5911 55.3438 21.9609C55.3438 21.2995 55.1328 20.8307 54.7109 20.5547C54.2943 20.2786 53.6484 20.1406 52.7734 20.1406ZM63.4141 21.1875C64.1849 21.1875 64.8464 21.3464 65.3984 21.6641C65.9505 21.9818 66.375 22.4323 66.6719 23.0156C66.9688 23.599 67.1172 24.2969 67.1172 25.1094V26.0938H61.3438C61.3646 26.9323 61.5885 27.5781 62.0156 28.0312C62.4479 28.4844 63.0521 28.7109 63.8281 28.7109C64.3802 28.7109 64.875 28.6589 65.3125 28.5547C65.7552 28.4453 66.2109 28.2865 66.6797 28.0781V29.5703C66.2474 29.7734 65.8073 29.9219 65.3594 30.0156C64.9115 30.1094 64.375 30.1562 63.75 30.1562C62.901 30.1562 62.1536 29.9922 61.5078 29.6641C60.8672 29.3307 60.3646 28.8359 60 28.1797C59.6406 27.5234 59.4609 26.7083 59.4609 25.7344C59.4609 24.7656 59.625 23.9427 59.9531 23.2656C60.2812 22.5885 60.7422 22.0729 61.3359 21.7188C61.9297 21.3646 62.6224 21.1875 63.4141 21.1875ZM63.4141 22.5703C62.8359 22.5703 62.3672 22.7578 62.0078 23.1328C61.6536 23.5078 61.4453 24.0573 61.3828 24.7812H65.3203C65.3151 24.349 65.2422 23.9661 65.1016 23.6328C64.9661 23.2995 64.7578 23.0391 64.4766 22.8516C64.2005 22.6641 63.8464 22.5703 63.4141 22.5703ZM73.9453 21.1875C74.9193 21.1875 75.6771 21.4401 76.2188 21.9453C76.7656 22.4453 77.0391 23.25 77.0391 24.3594V30H75.2031V24.7031C75.2031 24.0312 75.0651 23.5286 74.7891 23.1953C74.513 22.8568 74.0859 22.6875 73.5078 22.6875C72.6693 22.6875 72.0859 22.9453 71.7578 23.4609C71.4349 23.9766 71.2734 24.724 71.2734 25.7031V30H69.4375V21.3516H70.8672L71.125 22.5234H71.2266C71.4141 22.2214 71.6458 21.974 71.9219 21.7812C72.2031 21.5833 72.5156 21.4349 72.8594 21.3359C73.2083 21.237 73.5703 21.1875 73.9453 21.1875ZM83.25 21.1875C84.3438 21.1875 85.1693 21.4297 85.7266 21.9141C86.2891 22.3984 86.5703 23.1536 86.5703 24.1797V30H85.2656L84.9141 28.7734H84.8516C84.6068 29.0859 84.3542 29.3438 84.0938 29.5469C83.8333 29.75 83.5312 29.901 83.1875 30C82.849 30.1042 82.4349 30.1562 81.9453 30.1562C81.4297 30.1562 80.9688 30.0625 80.5625 29.875C80.1562 29.6823 79.8359 29.3906 79.6016 29C79.3672 28.6094 79.25 28.1146 79.25 27.5156C79.25 26.625 79.5807 25.9557 80.2422 25.5078C80.9089 25.0599 81.9141 24.8125 83.2578 24.7656L84.7578 24.7109V24.2578C84.7578 23.6589 84.6172 23.2318 84.3359 22.9766C84.0599 22.7214 83.6693 22.5938 83.1641 22.5938C82.7318 22.5938 82.3125 22.6562 81.9062 22.7812C81.5 22.9062 81.1042 23.0599 80.7188 23.2422L80.125 21.9453C80.5469 21.7214 81.026 21.5391 81.5625 21.3984C82.1042 21.2578 82.6667 21.1875 83.25 21.1875ZM84.75 25.8672L83.6328 25.9062C82.7161 25.9375 82.0729 26.0938 81.7031 26.375C81.3333 26.6562 81.1484 27.0417 81.1484 27.5312C81.1484 27.9583 81.276 28.2708 81.5312 28.4688C81.7865 28.6615 82.1224 28.7578 82.5391 28.7578C83.1745 28.7578 83.7005 28.5781 84.1172 28.2188C84.5391 27.8542 84.75 27.3203 84.75 26.6172V25.8672ZM99.1641 21.1875C100.133 21.1875 100.862 21.4375 101.352 21.9375C101.846 22.4375 102.094 23.2396 102.094 24.3438V30H100.258V24.6719C100.258 24.0156 100.13 23.5208 99.875 23.1875C99.6198 22.8542 99.2318 22.6875 98.7109 22.6875C97.9818 22.6875 97.4557 22.9219 97.1328 23.3906C96.8151 23.8542 96.6562 24.5286 96.6562 25.4141V30H94.8203V24.6719C94.8203 24.2344 94.763 23.8698 94.6484 23.5781C94.5391 23.2812 94.3698 23.0599 94.1406 22.9141C93.9115 22.763 93.6224 22.6875 93.2734 22.6875C92.7682 22.6875 92.3646 22.8021 92.0625 23.0312C91.7656 23.2604 91.5521 23.599 91.4219 24.0469C91.2917 24.4896 91.2266 25.0339 91.2266 25.6797V30H89.3906V21.3516H90.8203L91.0781 22.5156H91.1797C91.3568 22.2135 91.5755 21.9661 91.8359 21.7734C92.1016 21.5755 92.3958 21.4297 92.7188 21.3359C93.0417 21.237 93.3776 21.1875 93.7266 21.1875C94.3724 21.1875 94.9167 21.3021 95.3594 21.5312C95.8021 21.7552 96.1328 22.099 96.3516 22.5625H96.4922C96.763 22.0938 97.1406 21.7474 97.625 21.5234C98.1094 21.2995 98.6224 21.1875 99.1641 21.1875ZM108.352 21.1875C109.122 21.1875 109.784 21.3464 110.336 21.6641C110.888 21.9818 111.312 22.4323 111.609 23.0156C111.906 23.599 112.055 24.2969 112.055 25.1094V26.0938H106.281C106.302 26.9323 106.526 27.5781 106.953 28.0312C107.385 28.4844 107.99 28.7109 108.766 28.7109C109.318 28.7109 109.812 28.6589 110.25 28.5547C110.693 28.4453 111.148 28.2865 111.617 28.0781V29.5703C111.185 29.7734 110.745 29.9219 110.297 30.0156C109.849 30.1094 109.312 30.1562 108.688 30.1562C107.839 30.1562 107.091 29.9922 106.445 29.6641C105.805 29.3307 105.302 28.8359 104.938 28.1797C104.578 27.5234 104.398 26.7083 104.398 25.7344C104.398 24.7656 104.562 23.9427 104.891 23.2656C105.219 22.5885 105.68 22.0729 106.273 21.7188C106.867 21.3646 107.56 21.1875 108.352 21.1875ZM108.352 22.5703C107.773 22.5703 107.305 22.7578 106.945 23.1328C106.591 23.5078 106.383 24.0573 106.32 24.7812H110.258C110.253 24.349 110.18 23.9661 110.039 23.6328C109.904 23.2995 109.695 23.0391 109.414 22.8516C109.138 22.6641 108.784 22.5703 108.352 22.5703Z" fill="#0063A3"/>
</g>
<rect x="1" y="1" width="127" height="46" rx="23" stroke="#0063A3" stroke-width="2"/>
<defs>
<clipPath id="clip0_647_123088">
<rect width="97" height="24" fill="white" transform="translate(16 12)"/>
</clipPath>
</defs>
</svg>
